images_elementary_svg/cmd/sc_ruler.svg

<?xml version="1.0" encoding="UTF-8" standalone="no"?>
<svg
   xmlns:dc="http://purl.org/dc/elements/1.1/"
   xmlns:cc="http://creativecommons.org/ns#"
   xmlns:rdf="http://www.w3.org/1999/02/22-rdf-syntax-ns#"
   xmlns:svg="http://www.w3.org/2000/svg"
   xmlns="http://www.w3.org/2000/svg"
   xmlns:xlink="http://www.w3.org/1999/xlink"
   xmlns:sodipodi="http://sodipodi.sourceforge.net/DTD/sodipodi-0.dtd"
   xmlns:inkscape="http://www.inkscape.org/namespaces/inkscape"
   id="svg3942"
   height="16"
   width="16"
   version="1.1"
   sodipodi:docname="sc_ruler.svg"
   inkscape:export-filename="/home/rizmut/Dokumen/Rizmut/Github/libreoffice-style-elementary/images_elementary/cmd/sc_ruler.png"
   inkscape:export-xdpi="96"
   inkscape:export-ydpi="96"
   inkscape:version="0.92.3 (unknown)">
  <sodipodi:namedview
     pagecolor="#ffffff"
     bordercolor="#666666"
     borderopacity="1"
     objecttolerance="10"
     gridtolerance="10"
     guidetolerance="10"
     inkscape:pageopacity="0"
     inkscape:pageshadow="2"
     inkscape:window-width="1366"
     inkscape:window-height="706"
     id="namedview23"
     showgrid="false"
     inkscape:zoom="5.2149125"
     inkscape:cx="-21.632739"
     inkscape:cy="3.1383179"
     inkscape:window-x="0"
     inkscape:window-y="0"
     inkscape:window-maximized="1"
     inkscape:current-layer="svg3942" />
  <defs
     id="defs3944">
    <linearGradient
       gradientTransform="matrix(0.25378586,0,0,0.30501865,19.128979,-0.68547704)"
       gradientUnits="userSpaceOnUse"
       xlink:href="#linearGradient3104-9"
       id="linearGradient3092"
       y2="2.9062471"
       x2="-51.786404"
       y1="50.786446"
       x1="-51.786404" />
    <linearGradient
       id="linearGradient3104-9">
      <stop
         offset="0"
         style="stop-color:#000000;stop-opacity:0.33950618"
         id="stop3106-5" />
      <stop
         offset="1"
         style="stop-color:#000000;stop-opacity:0.24691358"
         id="stop3108-5" />
    </linearGradient>
    <linearGradient
       gradientTransform="matrix(0.24324324,0,0,0.35135133,2.1621636,-0.43242804)"
       gradientUnits="userSpaceOnUse"
       xlink:href="#linearGradient3977"
       id="linearGradient3095"
       y2="41.076912"
       x2="23.99999"
       y1="6.9230647"
       x1="23.99999" />
    <linearGradient
       id="linearGradient3977">
      <stop
         offset="0"
         style="stop-color:#ffffff;stop-opacity:1"
         id="stop3979" />
      <stop
         offset="0"
         style="stop-color:#ffffff;stop-opacity:0.23529412"
         id="stop3981" />
      <stop
         offset="1"
         style="stop-color:#ffffff;stop-opacity:0.15686275"
         id="stop3983" />
      <stop
         offset="1"
         style="stop-color:#ffffff;stop-opacity:0.39215687"
         id="stop3985" />
    </linearGradient>
    <linearGradient
       id="linearGradient3600">
      <stop
         offset="0"
         style="stop-color:#f4f4f4;stop-opacity:1"
         id="stop3602" />
      <stop
         offset="1"
         style="stop-color:#dbdbdb;stop-opacity:1"
         id="stop3604" />
    </linearGradient>
    <linearGradient
       gradientTransform="matrix(0.28571361,0,0,0.30419701,1.1428727,0.2326048)"
       gradientUnits="userSpaceOnUse"
       xlink:href="#linearGradient3600"
       id="linearGradient3940"
       y2="47.013336"
       x2="25.132275"
       y1="0.98520643"
       x1="25.132275" />
    <linearGradient
       id="a"
       gradientTransform="matrix(0.49985451,0,0,0.87729351,-186.69407,-29.012618)"
       gradientUnits="userSpaceOnUse"
       x1="385"
       x2="385"
       y1="8"
       y2="33">
      <stop
         offset="0"
         stop-color="#e7d198"
         id="stop2" />
      <stop
         offset="1"
         stop-color="#ba964a"
         id="stop4" />
    </linearGradient>
    <linearGradient
       id="b"
       gradientTransform="matrix(0.33333336,0,0,0.86363639,-122.66669,-28.704545)"
       gradientUnits="userSpaceOnUse"
       x1="384"
       x2="384"
       y1="9"
       y2="32">
      <stop
         offset="0"
         stop-color="#fff"
         id="stop7" />
      <stop
         offset="1"
         stop-color="#fff"
         stop-opacity="0"
         id="stop9" />
    </linearGradient>
  </defs>
  <metadata
     id="metadata3947">
    <rdf:RDF>
      <cc:Work
         rdf:about="">
        <dc:format>image/svg+xml</dc:format>
        <dc:type
           rdf:resource="http://purl.org/dc/dcmitype/StillImage" />
        <dc:title></dc:title>
      </cc:Work>
    </rdf:RDF>
  </metadata>
  <g
     id="g1960">
    <path
       style="display:inline;fill:url(#linearGradient3940);fill-opacity:1;stroke:none"
       id="path4160"
       d="m 3,1 c 2.2915074,0 9.999988,8.904e-4 9.999988,8.904e-4 L 13,15 C 13,15 6.3333332,15 3,15 3,10.333334 3,5.6666664 3,1 Z" />
    <path
       style="fill:none;stroke:url(#linearGradient3095);stroke-width:1;stroke-linecap:round;stroke-linejoin:miter;stroke-miterlimit:4;stroke-dasharray:none;stroke-dashoffset:0;stroke-opacity:1"
       id="rect6741-1"
       d="M 12.5,14.5 H 3.4999999 V 1.5 H 12.5 Z" />
    <path
       style="display:inline;fill:none;stroke:url(#linearGradient3092);stroke-width:0.99992192;stroke-linecap:butt;stroke-linejoin:round;stroke-miterlimit:4;stroke-dasharray:none;stroke-dashoffset:0;stroke-opacity:1"
       id="path4160-8"
       d="m 2.4999621,0.49997396 c 2.5206756,0 11.0000629,9.54e-4 11.0000629,9.54e-4 l 1.3e-5,14.99909804 c 0,0 -7.3333841,0 -11.000076,0 0,-5.000017 0,-10.000035 10e-8,-15.00005204 z" />
  </g>
  <g
     id="g883">
    <path
       style="fill:url(#a);stroke:#956e37;stroke-width:1.00116396;stroke-linejoin:round"
       inkscape:connector-curvature="0"
       id="path18"
       transform="rotate(90)"
       d="M 3.500582,-15.499422 H 7.499418 V -0.500586 H 3.500582 Z" />
    <path
       style="opacity:0.4;fill:none;stroke:url(#b)"
       inkscape:connector-curvature="0"
       id="path20"
       transform="rotate(90)"
       d="m 4.5,-14.45963 h 2 v 12.959627 h -2 z" />
    <g
       style="fill:#956e37"
       id="g30">
      <path
         inkscape:connector-curvature="0"
         id="path22"
         d="M 3,4 H 4 V 6 H 3 Z" />
      <path
         inkscape:connector-curvature="0"
         id="path24"
         d="M 6,4 H 7 V 6 H 6 Z" />
      <path
         inkscape:connector-curvature="0"
         id="path26"
         d="m 9,4 h 1 V 6 H 9 Z" />
      <path
         inkscape:connector-curvature="0"
         id="path28"
         d="m 12,4 h 1 v 2 h -1 z" />
    </g>
  </g>
</svg>

<svg xmlns="http://www.w3.org/2000/svg" xmlns:xlink="http://www.w3.org/1999/xlink" height="16" width="16"><defs><linearGradient gradientTransform="matrix(.2538 0 0 .30502 19.13 -.685)" gradientUnits="userSpaceOnUse" xlink:href="#a" id="f" y2="2.906" x2="-51.786" y1="50.786" x1="-51.786"/><linearGradient id="a"><stop offset="0" stop-opacity=".34"/><stop offset="1" stop-opacity=".247"/></linearGradient><linearGradient gradientTransform="matrix(.24324 0 0 .35135 2.162 -.432)" gradientUnits="userSpaceOnUse" xlink:href="#b" id="e" y2="41.077" x2="24" y1="6.923" x1="24"/><linearGradient id="b"><stop offset="0" stop-color="#fff"/><stop offset="0" stop-color="#fff" stop-opacity=".235"/><stop offset="1" stop-color="#fff" stop-opacity=".157"/><stop offset="1" stop-color="#fff" stop-opacity=".392"/></linearGradient><linearGradient id="c"><stop offset="0" stop-color="#f4f4f4"/><stop offset="1" stop-color="#dbdbdb"/></linearGradient><linearGradient gradientTransform="matrix(.2857 0 0 .3042 1.143 .233)" gradientUnits="userSpaceOnUse" xlink:href="#c" id="d" y2="47.013" x2="25.132" y1=".985" x1="25.132"/><linearGradient id="g" gradientTransform="matrix(.49985 0 0 .8773 -186.694 -29.013)" gradientUnits="userSpaceOnUse" x1="385" x2="385" y1="8" y2="33"><stop offset="0" stop-color="#e7d198"/><stop offset="1" stop-color="#ba964a"/></linearGradient><linearGradient id="h" gradientTransform="matrix(.33333 0 0 .86364 -122.667 -28.705)" gradientUnits="userSpaceOnUse" x1="384" x2="384" y1="9" y2="32"><stop offset="0" stop-color="#fff"/><stop offset="1" stop-color="#fff" stop-opacity="0"/></linearGradient></defs><path d="M3 1h10v14H3V1z" fill="url(#d)"/><path d="M12.5 14.5h-9v-13h9z" fill="none" stroke="url(#e)" stroke-linecap="round"/><path d="M2.5.5h11v15h-11V.5z" fill="none" stroke="url(#f)" stroke-linejoin="round"/><g><path transform="rotate(90)" d="M3.5-15.5h4v15h-4z" fill="url(#g)" stroke="#956e37" stroke-width="1.001" stroke-linejoin="round"/><path transform="rotate(90)" d="M4.5-14.46h2V-1.5h-2z" opacity=".4" fill="none" stroke="url(#h)"/><g fill="#956e37"><path d="M3 4h1v2H3zM6 4h1v2H6zM9 4h1v2H9zM12 4h1v2h-1z"/></g></g></svg>
